!!! OTL: Berkowitz415
!!! Chapter: 1
!!! Section: IV
!!! Page: 103
!!! Mode: 
!!! Encoder: DJB
**kern
*staff1
*I"Piano
=1-
*clefC4
*k[b-e-a-d-]
*f:
*M6/8
4.r
8r
8r
8C/
=2
8c\L
8.A-\
16G\Jk
4F/
8F/
=3
8f\L
8.d-\
16c\Jk
4B-\
8A-\
=4
8G\L
8A-\
8B-\J
8c\L
8A-\
8G\J
=5
8F/L
8En/
8F/J
4G/
8C/
=6
8c\L
8.A-\
16G\Jk
4F/
8c\
=7
8f\L
8.d-\
16An\Jk
4c\
8B-\
=8
!!linebreak:original
8r
8A-/L
8G/J
8F\L
8A-\
8c\J
=9
8C/L
8.A-/
16G/Jk
4F/
8r
==
*-
